images/50659356.svg

<?xml version="1.0" encoding="UTF-8"?>
<svg xmlns="http://www.w3.org/2000/svg" xmlns:xlink="http://www.w3.org/1999/xlink" width="300pt" height="300pt" viewBox="0 0 300 300" version="1.1">
<defs>
<g>
<symbol overflow="visible" id="glyph0-0">
<path style="stroke:none;" d="M 0.453125 1.59375 L 0.453125 -6.34375 L 4.953125 -6.34375 L 4.953125 1.59375 Z M 0.953125 1.09375 L 4.453125 1.09375 L 4.453125 -5.84375 L 0.953125 -5.84375 Z M 0.953125 1.09375 "/>
</symbol>
<symbol overflow="visible" id="glyph0-1">
<path style="stroke:none;" d="M 3.546875 -5.953125 C 2.898438 -5.953125 2.382812 -5.710938 2 -5.234375 C 1.625 -4.753906 1.4375 -4.101562 1.4375 -3.28125 C 1.4375 -2.445312 1.625 -1.789062 2 -1.3125 C 2.382812 -0.832031 2.898438 -0.59375 3.546875 -0.59375 C 4.191406 -0.59375 4.703125 -0.832031 5.078125 -1.3125 C 5.453125 -1.789062 5.640625 -2.445312 5.640625 -3.28125 C 5.640625 -4.101562 5.453125 -4.753906 5.078125 -5.234375 C 4.703125 -5.710938 4.191406 -5.953125 3.546875 -5.953125 Z M 3.546875 -6.6875 C 4.460938 -6.6875 5.195312 -6.375 5.75 -5.75 C 6.300781 -5.132812 6.578125 -4.3125 6.578125 -3.28125 C 6.578125 -2.238281 6.300781 -1.410156 5.75 -0.796875 C 5.195312 -0.179688 4.460938 0.125 3.546875 0.125 C 2.617188 0.125 1.878906 -0.179688 1.328125 -0.796875 C 0.773438 -1.410156 0.5 -2.238281 0.5 -3.28125 C 0.5 -4.3125 0.773438 -5.132812 1.328125 -5.75 C 1.878906 -6.375 2.617188 -6.6875 3.546875 -6.6875 Z M 3.546875 -6.6875 "/>
</symbol>
<symbol overflow="visible" id="glyph0-2">
<path style="stroke:none;" d="M 0.890625 -6.5625 L 2.078125 -6.5625 L 4.984375 -1.078125 L 4.984375 -6.5625 L 5.84375 -6.5625 L 5.84375 0 L 4.65625 0 L 1.75 -5.484375 L 1.75 0 L 0.890625 0 Z M 0.890625 -6.5625 "/>
</symbol>
<symbol overflow="visible" id="glyph0-3">
<path style="stroke:none;" d="M 0.890625 -6.5625 L 1.765625 -6.5625 L 1.765625 -3.875 L 5 -3.875 L 5 -6.5625 L 5.890625 -6.5625 L 5.890625 0 L 5 0 L 5 -3.125 L 1.765625 -3.125 L 1.765625 0 L 0.890625 0 Z M 0.890625 -6.5625 "/>
</symbol>
</g>
</defs>
<g id="surface24329">
<rect x="0" y="0" width="300" height="300" style="fill:rgb(100%,100%,100%);fill-opacity:1;stroke:none;"/>
<path style="fill:none;stroke-width:1.2;stroke-linecap:butt;stroke-linejoin:miter;stroke:rgb(100%,0%,0%);stroke-opacity:1;stroke-miterlimit:10;" d="M 53.089844 123.558594 L 64.363281 126.269531 "/>
<path style="fill:none;stroke-width:1.2;stroke-linecap:butt;stroke-linejoin:miter;stroke:rgb(0%,0%,0%);stroke-opacity:1;stroke-miterlimit:10;" d="M 64.363281 126.269531 L 75.632812 128.980469 "/>
<path style="fill:none;stroke-width:1.2;stroke-linecap:butt;stroke-linejoin:miter;stroke:rgb(100%,0%,0%);stroke-opacity:1;stroke-miterlimit:10;" d="M 54.363281 118.253906 L 65.636719 120.964844 "/>
<path style="fill:none;stroke-width:1.2;stroke-linecap:butt;stroke-linejoin:miter;stroke:rgb(0%,0%,0%);stroke-opacity:1;stroke-miterlimit:10;" d="M 65.636719 120.964844 L 76.910156 123.675781 "/>
<path style=" stroke:none;fill-rule:nonzero;fill:rgb(100%,100%,100%);fill-opacity:1;" d="M 45.726562 115.40625 L 53.726562 115.40625 L 53.726562 126.40625 L 45.726562 126.40625 Z M 45.726562 115.40625 "/>
<g style="fill:rgb(100%,0%,0%);fill-opacity:1;">
  <use xlink:href="#glyph0-1" x="45.726562" y="124.069336"/>
</g>
<path style="fill:none;stroke-width:1.2;stroke-linecap:butt;stroke-linejoin:miter;stroke:rgb(0%,0%,0%);stroke-opacity:1;stroke-miterlimit:10;" d="M 76.269531 126.328125 L 85.089844 118.800781 "/>
<path style="fill:none;stroke-width:1.2;stroke-linecap:butt;stroke-linejoin:miter;stroke:rgb(0%,0%,100%);stroke-opacity:1;stroke-miterlimit:10;" d="M 85.089844 118.800781 L 93.90625 111.277344 "/>
<path style="fill:none;stroke-width:1.2;stroke-linecap:butt;stroke-linejoin:miter;stroke:rgb(0%,0%,0%);stroke-opacity:1;stroke-miterlimit:10;" d="M 85.136719 147.75 L 76.269531 126.328125 "/>
<path style="fill:none;stroke-width:1.2;stroke-linecap:butt;stroke-linejoin:miter;stroke:rgb(0%,0%,100%);stroke-opacity:1;stroke-miterlimit:10;" d="M 93.90625 111.277344 L 103.789062 117.335938 "/>
<path style="fill:none;stroke-width:1.2;stroke-linecap:butt;stroke-linejoin:miter;stroke:rgb(0%,0%,0%);stroke-opacity:1;stroke-miterlimit:10;" d="M 103.789062 117.335938 L 113.671875 123.398438 "/>
<path style=" stroke:none;fill-rule:nonzero;fill:rgb(100%,100%,100%);fill-opacity:1;" d="M 86.90625 105.777344 L 100.90625 105.777344 L 100.90625 116.777344 L 86.90625 116.777344 Z M 86.90625 105.777344 "/>
<g style="fill:rgb(0%,0%,100%);fill-opacity:1;">
  <use xlink:href="#glyph0-2" x="86.90625" y="114.44043"/>
  <use xlink:href="#glyph0-3" x="93.883789" y="114.44043"/>
</g>
<path style="fill:none;stroke-width:1.2;stroke-linecap:butt;stroke-linejoin:miter;stroke:rgb(0%,0%,0%);stroke-opacity:1;stroke-miterlimit:10;" d="M 113.671875 123.398438 L 108.253906 145.941406 "/>
<path style="fill:none;stroke-width:1.2;stroke-linecap:butt;stroke-linejoin:miter;stroke:rgb(0%,0%,0%);stroke-opacity:1;stroke-miterlimit:10;" d="M 118.433594 126.925781 L 114.097656 144.960938 "/>
<path style="fill:none;stroke-width:1.2;stroke-linecap:butt;stroke-linejoin:miter;stroke:rgb(0%,0%,0%);stroke-opacity:1;stroke-miterlimit:10;" d="M 135.90625 116.820312 L 113.671875 123.398438 "/>
<path style="fill:none;stroke-width:1.2;stroke-linecap:butt;stroke-linejoin:miter;stroke:rgb(0%,0%,0%);stroke-opacity:1;stroke-miterlimit:10;" d="M 108.253906 145.941406 L 125.066406 161.90625 "/>
<path style="fill:none;stroke-width:1.2;stroke-linecap:butt;stroke-linejoin:miter;stroke:rgb(0%,0%,0%);stroke-opacity:1;stroke-miterlimit:10;" d="M 108.253906 145.941406 L 85.136719 147.75 "/>
<path style="fill:none;stroke-width:1.2;stroke-linecap:butt;stroke-linejoin:miter;stroke:rgb(0%,0%,0%);stroke-opacity:1;stroke-miterlimit:10;" d="M 125.066406 161.90625 L 147.300781 155.328125 "/>
<path style="fill:none;stroke-width:1.2;stroke-linecap:butt;stroke-linejoin:miter;stroke:rgb(0%,0%,0%);stroke-opacity:1;stroke-miterlimit:10;" d="M 125.742188 156.015625 L 143.527344 150.753906 "/>
<path style="fill:none;stroke-width:1.2;stroke-linecap:butt;stroke-linejoin:miter;stroke:rgb(0%,0%,0%);stroke-opacity:1;stroke-miterlimit:10;" d="M 147.300781 155.328125 L 152.71875 132.785156 "/>
<path style="fill:none;stroke-width:1.2;stroke-linecap:butt;stroke-linejoin:miter;stroke:rgb(0%,0%,0%);stroke-opacity:1;stroke-miterlimit:10;" d="M 152.71875 132.785156 L 135.90625 116.820312 "/>
<path style="fill:none;stroke-width:1.2;stroke-linecap:butt;stroke-linejoin:miter;stroke:rgb(0%,0%,0%);stroke-opacity:1;stroke-miterlimit:10;" d="M 147.28125 135.144531 L 133.832031 122.371094 "/>
<path style="fill:none;stroke-width:1.2;stroke-linecap:butt;stroke-linejoin:miter;stroke:rgb(0%,0%,0%);stroke-opacity:1;stroke-miterlimit:10;" d="M 152.71875 132.785156 L 174.953125 126.207031 "/>
<path style="fill:none;stroke-width:1.2;stroke-linecap:butt;stroke-linejoin:miter;stroke:rgb(0%,0%,0%);stroke-opacity:1;stroke-miterlimit:10;" d="M 174.953125 126.207031 L 191.765625 142.171875 "/>
<path style="fill:none;stroke-width:1.2;stroke-linecap:butt;stroke-linejoin:miter;stroke:rgb(0%,0%,0%);stroke-opacity:1;stroke-miterlimit:10;" d="M 180.390625 123.847656 L 193.839844 136.621094 "/>
<path style="fill:none;stroke-width:1.2;stroke-linecap:butt;stroke-linejoin:miter;stroke:rgb(0%,0%,0%);stroke-opacity:1;stroke-miterlimit:10;" d="M 180.371094 103.664062 L 174.953125 126.207031 "/>
<path style="fill:none;stroke-width:1.2;stroke-linecap:butt;stroke-linejoin:miter;stroke:rgb(0%,0%,0%);stroke-opacity:1;stroke-miterlimit:10;" d="M 191.765625 142.171875 L 214 135.59375 "/>
<path style="fill:none;stroke-width:1.2;stroke-linecap:butt;stroke-linejoin:miter;stroke:rgb(0%,0%,0%);stroke-opacity:1;stroke-miterlimit:10;" d="M 214 135.59375 L 219.417969 113.050781 "/>
<path style="fill:none;stroke-width:1.2;stroke-linecap:butt;stroke-linejoin:miter;stroke:rgb(0%,0%,0%);stroke-opacity:1;stroke-miterlimit:10;" d="M 209.238281 132.066406 L 213.574219 114.03125 "/>
<path style="fill:none;stroke-width:1.2;stroke-linecap:butt;stroke-linejoin:miter;stroke:rgb(0%,0%,0%);stroke-opacity:1;stroke-miterlimit:10;" d="M 214 135.59375 L 230.8125 151.558594 "/>
<path style="fill:none;stroke-width:1.2;stroke-linecap:butt;stroke-linejoin:miter;stroke:rgb(0%,0%,0%);stroke-opacity:1;stroke-miterlimit:10;" d="M 219.417969 113.050781 L 202.605469 97.085938 "/>
<path style="fill:none;stroke-width:1.2;stroke-linecap:butt;stroke-linejoin:miter;stroke:rgb(0%,0%,0%);stroke-opacity:1;stroke-miterlimit:10;" d="M 202.605469 97.085938 L 180.371094 103.664062 "/>
<path style="fill:none;stroke-width:1.2;stroke-linecap:butt;stroke-linejoin:miter;stroke:rgb(0%,0%,0%);stroke-opacity:1;stroke-miterlimit:10;" d="M 201.929688 102.972656 L 184.144531 108.238281 "/>
<path style="fill:none;stroke-width:1.2;stroke-linecap:butt;stroke-linejoin:miter;stroke:rgb(0%,0%,0%);stroke-opacity:1;stroke-miterlimit:10;" d="M 180.371094 103.664062 L 163.558594 87.695312 "/>
<path style="fill:none;stroke-width:1.2;stroke-linecap:butt;stroke-linejoin:miter;stroke:rgb(0%,0%,0%);stroke-opacity:1;stroke-miterlimit:10;" d="M 231.585938 154.175781 L 242.703125 150.886719 "/>
<path style="fill:none;stroke-width:1.2;stroke-linecap:butt;stroke-linejoin:miter;stroke:rgb(100%,0%,0%);stroke-opacity:1;stroke-miterlimit:10;" d="M 242.703125 150.886719 L 253.820312 147.597656 "/>
<path style="fill:none;stroke-width:1.2;stroke-linecap:butt;stroke-linejoin:miter;stroke:rgb(0%,0%,0%);stroke-opacity:1;stroke-miterlimit:10;" d="M 230.039062 148.945312 L 241.15625 145.65625 "/>
<path style="fill:none;stroke-width:1.2;stroke-linecap:butt;stroke-linejoin:miter;stroke:rgb(100%,0%,0%);stroke-opacity:1;stroke-miterlimit:10;" d="M 241.15625 145.65625 L 252.273438 142.367188 "/>
<path style="fill:none;stroke-width:1.2;stroke-linecap:butt;stroke-linejoin:miter;stroke:rgb(0%,0%,0%);stroke-opacity:1;stroke-miterlimit:10;" d="M 230.8125 151.558594 L 228.101562 162.832031 "/>
<path style="fill:none;stroke-width:1.2;stroke-linecap:butt;stroke-linejoin:miter;stroke:rgb(0%,0%,100%);stroke-opacity:1;stroke-miterlimit:10;" d="M 228.101562 162.832031 L 225.394531 174.105469 "/>
<path style=" stroke:none;fill-rule:nonzero;fill:rgb(100%,100%,100%);fill-opacity:1;" d="M 249.046875 139.480469 L 257.046875 139.480469 L 257.046875 150.480469 L 249.046875 150.480469 Z M 249.046875 139.480469 "/>
<g style="fill:rgb(100%,0%,0%);fill-opacity:1;">
  <use xlink:href="#glyph0-1" x="249.046875" y="148.143555"/>
</g>
<path style="fill:none;stroke-width:1.2;stroke-linecap:butt;stroke-linejoin:miter;stroke:rgb(0%,0%,100%);stroke-opacity:1;stroke-miterlimit:10;" d="M 225.394531 174.105469 L 233.800781 182.085938 "/>
<path style="fill:none;stroke-width:1.2;stroke-linecap:butt;stroke-linejoin:miter;stroke:rgb(0%,0%,0%);stroke-opacity:1;stroke-miterlimit:10;" d="M 233.800781 182.085938 L 242.207031 190.070312 "/>
<path style=" stroke:none;fill-rule:nonzero;fill:rgb(100%,100%,100%);fill-opacity:1;" d="M 218.394531 168.605469 L 232.394531 168.605469 L 232.394531 179.605469 L 218.394531 179.605469 Z M 218.394531 168.605469 "/>
<g style="fill:rgb(0%,0%,100%);fill-opacity:1;">
  <use xlink:href="#glyph0-2" x="218.394531" y="177.268555"/>
  <use xlink:href="#glyph0-3" x="225.37207" y="177.268555"/>
</g>
<path style="fill:none;stroke-width:1.2;stroke-linecap:butt;stroke-linejoin:miter;stroke:rgb(0%,0%,0%);stroke-opacity:1;stroke-miterlimit:10;" d="M 242.207031 190.070312 L 264.75 195.488281 "/>
<path style="fill:none;stroke-width:1.2;stroke-linecap:butt;stroke-linejoin:miter;stroke:rgb(0%,0%,0%);stroke-opacity:1;stroke-miterlimit:10;" d="M 248.785156 212.304688 L 242.207031 190.070312 "/>
<path style="fill:none;stroke-width:1.2;stroke-linecap:butt;stroke-linejoin:miter;stroke:rgb(0%,0%,0%);stroke-opacity:1;stroke-miterlimit:10;" d="M 264.75 195.488281 L 248.785156 212.304688 "/>
<path style="fill:none;stroke-width:1.2;stroke-linecap:butt;stroke-linejoin:miter;stroke:rgb(0%,0%,0%);stroke-opacity:1;stroke-miterlimit:10;" d="M 85.136719 147.75 L 62.902344 154.328125 "/>
<path style="fill:none;stroke-width:1.2;stroke-linecap:butt;stroke-linejoin:miter;stroke:rgb(0%,0%,0%);stroke-opacity:1;stroke-miterlimit:10;" d="M 85.136719 147.75 L 89.355469 170.550781 "/>
<path style="fill:none;stroke-width:1.2;stroke-linecap:butt;stroke-linejoin:miter;stroke:rgb(0%,0%,0%);stroke-opacity:1;stroke-miterlimit:10;" d="M 62.902344 154.328125 L 57.484375 176.875 "/>
<path style="fill:none;stroke-width:1.2;stroke-linecap:butt;stroke-linejoin:miter;stroke:rgb(0%,0%,0%);stroke-opacity:1;stroke-miterlimit:10;" d="M 57.484375 176.875 L 46.367188 180.164062 "/>
<path style="fill:none;stroke-width:1.2;stroke-linecap:butt;stroke-linejoin:miter;stroke:rgb(100%,0%,0%);stroke-opacity:1;stroke-miterlimit:10;" d="M 46.367188 180.164062 L 35.25 183.453125 "/>
<path style=" stroke:none;fill-rule:nonzero;fill:rgb(100%,100%,100%);fill-opacity:1;" d="M 20.25 177.953125 L 35.25 177.953125 L 35.25 188.953125 L 20.25 188.953125 Z M 20.25 177.953125 "/>
<g style="fill:rgb(100%,0%,0%);fill-opacity:1;">
  <use xlink:href="#glyph0-3" x="20.25" y="186.616211"/>
  <use xlink:href="#glyph0-1" x="27.264648" y="186.616211"/>
</g>
<path style="fill:none;stroke-width:1.2;stroke-linecap:butt;stroke-linejoin:miter;stroke:rgb(0%,0%,0%);stroke-opacity:1;stroke-miterlimit:10;" d="M 89.355469 170.550781 L 71.71875 185.605469 "/>
<path style="fill:none;stroke-width:1.2;stroke-linecap:butt;stroke-linejoin:miter;stroke:rgb(0%,0%,0%);stroke-opacity:1;stroke-miterlimit:10;" d="M 71.71875 185.605469 L 73.828125 197.003906 "/>
<path style="fill:none;stroke-width:1.2;stroke-linecap:butt;stroke-linejoin:miter;stroke:rgb(100%,0%,0%);stroke-opacity:1;stroke-miterlimit:10;" d="M 73.828125 197.003906 L 75.9375 208.402344 "/>
<path style=" stroke:none;fill-rule:nonzero;fill:rgb(100%,100%,100%);fill-opacity:1;" d="M 68.9375 202.902344 L 83.9375 202.902344 L 83.9375 213.902344 L 68.9375 213.902344 Z M 68.9375 202.902344 "/>
<g style="fill:rgb(100%,0%,0%);fill-opacity:1;">
  <use xlink:href="#glyph0-1" x="68.9375" y="211.56543"/>
  <use xlink:href="#glyph0-3" x="76.279297" y="211.56543"/>
</g>
</g>
</svg>

<svg xmlns="http://www.w3.org/2000/svg" xmlns:xlink="http://www.w3.org/1999/xlink" width="300pt" height="300pt" viewBox="0 0 300 300"><defs><symbol overflow="visible"><path d="M.453 1.594v-7.938h4.5v7.938zm.5-.5h3.5v-6.938h-3.5zm0 0"/></symbol><symbol overflow="visible" id="a"><path d="M3.547-5.953c-.65 0-1.164.242-1.547.72-.375.48-.563 1.13-.563 1.952 0 .835.188 1.49.563 1.967.383.48.898.72 1.547.72.644 0 1.156-.24 1.53-.72.376-.476.564-1.132.564-1.968 0-.822-.187-1.474-.562-1.954-.375-.477-.887-.72-1.53-.72zm0-.734c.914 0 1.648.312 2.203.937.55.617.828 1.438.828 2.47 0 1.042-.277 1.87-.828 2.483-.555.617-1.29.922-2.203.922-.93 0-1.668-.305-2.22-.922C.774-1.41.5-2.237.5-3.28c0-1.033.273-1.853.828-2.47.55-.625 1.29-.938 2.22-.938zm0 0"/></symbol><symbol overflow="visible" id="b"><path d="M.89-6.563H2.08l2.906 5.485v-5.484h.86V0H4.656L1.75-5.484V0H.89zm0 0"/></symbol><symbol overflow="visible" id="c"><path d="M.89-6.563h.876v2.688H5v-2.688h.89V0H5v-3.125H1.766V0H.89zm0 0"/></symbol></defs><g><path fill="#fff" d="M0 0h300v300H0z"/><path d="M53.09 123.56l11.273 2.71" stroke-width="1.2" stroke="#f00" stroke-miterlimit="10" fill="none"/><path d="M64.363 126.27l11.27 2.71" stroke-width="1.2" stroke="#000" stroke-miterlimit="10" fill="none"/><path d="M54.363 118.254l11.274 2.71" stroke-width="1.2" stroke="#f00" stroke-miterlimit="10" fill="none"/><path d="M65.637 120.965l11.273 2.71" stroke-width="1.2" stroke="#000" stroke-miterlimit="10" fill="none"/><path d="M45.727 115.406h8v11h-8zm0 0" fill="#fff"/><use xlink:href="#a" x="45.727" y="124.069" fill="#f00"/><path d="M76.27 126.328l8.82-7.527" stroke-width="1.2" stroke="#000" stroke-miterlimit="10" fill="none"/><path d="M85.09 118.8l8.816-7.523" stroke-width="1.2" stroke="#00f" stroke-miterlimit="10" fill="none"/><path d="M85.137 147.75l-8.867-21.422" stroke-width="1.2" stroke="#000" stroke-miterlimit="10" fill="none"/><path d="M93.906 111.277l9.883 6.06" stroke-width="1.2" stroke="#00f" stroke-miterlimit="10" fill="none"/><path d="M103.79 117.336l9.882 6.062" stroke-width="1.2" stroke="#000" stroke-miterlimit="10" fill="none"/><path d="M86.906 105.777h14v11h-14zm0 0" fill="#fff"/><g fill="#00f"><use xlink:href="#b" x="86.906" y="114.44"/><use xlink:href="#c" x="93.884" y="114.44"/></g><path d="M113.672 123.398l-5.418 22.543M118.434 126.926l-4.336 18.035M135.906 116.82l-22.234 6.578M108.254 145.94l16.812 15.966M108.254 145.94l-23.117 1.81M125.066 161.906l22.235-6.578M125.742 156.016l17.785-5.262M147.3 155.328l5.42-22.543M152.72 132.785l-16.814-15.965M147.28 135.145l-13.448-12.774M152.72 132.785l22.233-6.578M174.953 126.207l16.813 15.965M180.39 123.848l13.45 12.773M180.37 103.664l-5.417 22.543M191.766 142.172L214 135.594M214 135.594l5.418-22.543M209.238 132.066l4.336-18.035M214 135.594l16.813 15.965M219.418 113.05l-16.813-15.964M202.605 97.086l-22.234 6.578M201.93 102.973l-17.785 5.265M180.37 103.664l-16.81-15.97M231.586 154.176l11.117-3.29" stroke-width="1.2" stroke="#000" stroke-miterlimit="10" fill="none"/><path d="M242.703 150.887l11.117-3.29" stroke-width="1.2" stroke="#f00" stroke-miterlimit="10" fill="none"/><path d="M230.04 148.945l11.116-3.29" stroke-width="1.2" stroke="#000" stroke-miterlimit="10" fill="none"/><path d="M241.156 145.656l11.117-3.29" stroke-width="1.2" stroke="#f00" stroke-miterlimit="10" fill="none"/><path d="M230.813 151.56l-2.71 11.272" stroke-width="1.2" stroke="#000" stroke-miterlimit="10" fill="none"/><path d="M228.102 162.832l-2.707 11.273" stroke-width="1.2" stroke="#00f" stroke-miterlimit="10" fill="none"/><path d="M249.047 139.48h8v11h-8zm0 0" fill="#fff"/><use xlink:href="#a" x="249.047" y="148.144" fill="#f00"/><path d="M225.395 174.105l8.406 7.98" stroke-width="1.2" stroke="#00f" stroke-miterlimit="10" fill="none"/><path d="M233.8 182.086l8.407 7.984" stroke-width="1.2" stroke="#000" stroke-miterlimit="10" fill="none"/><path d="M218.395 168.605h14v11h-14zm0 0" fill="#fff"/><g fill="#00f"><use xlink:href="#b" x="218.395" y="177.269"/><use xlink:href="#c" x="225.372" y="177.269"/></g><path d="M242.207 190.07l22.543 5.418M248.785 212.305l-6.578-22.235M264.75 195.488l-15.965 16.817M85.137 147.75l-22.235 6.578M85.137 147.75l4.218 22.8M62.902 154.328l-5.418 22.547M57.484 176.875l-11.117 3.29" stroke-width="1.2" stroke="#000" stroke-miterlimit="10" fill="none"/><path d="M46.367 180.164l-11.117 3.29" stroke-width="1.2" stroke="#f00" stroke-miterlimit="10" fill="none"/><path d="M20.25 177.953h15v11h-15zm0 0" fill="#fff"/><g fill="#f00"><use xlink:href="#c" x="20.25" y="186.616"/><use xlink:href="#a" x="27.265" y="186.616"/></g><path d="M89.355 170.55L71.72 185.606M71.72 185.605l2.108 11.4" stroke-width="1.2" stroke="#000" stroke-miterlimit="10" fill="none"/><path d="M73.828 197.004l2.11 11.398" stroke-width="1.2" stroke="#f00" stroke-miterlimit="10" fill="none"/><path d="M68.938 202.902h15v11h-15zm0 0" fill="#fff"/><g fill="#f00"><use xlink:href="#a" x="68.938" y="211.565"/><use xlink:href="#c" x="76.279" y="211.565"/></g></g></svg>
